portfolio-htmlcssjs/img/ico_service.svg

<svg fill="none" height="15" viewBox="0 0 24 15" width="24" xmlns="http://www.w3.org/2000/svg"><path d="m10.2075.428596-1.91625 1.903154c-.57375.15643-1.10625.4432-1.55625.83799l-.9975.88267c-.3825.33892-.88125.52514-1.395.52514h-.7425v4.7672c.765.02235 1.4925.33147 2.03625.87155l1.335 1.3258.2625.2607 1.0125 1.0056c.2325.2309.615.2309.8475 0 .06375-.0633.1125-.1378.13875-.216.105-.2868.34875-.5028.64875-.5698.30005-.0671.61505.0223.83255.2421l.405.3947c.435.4321 1.14.4321 1.5712 0 .2025-.2011.3113-.4581.3225-.7225.015-.3277.21-.6182.51-.7598.3-.1415.6488-.1117.915.0783.3525.2495.8438.216 1.1588-.0969.3525-.3501.3525-.9162 0-1.26254l-2.8425-2.82308-1.3426 1.22905c-1.0237.93854-2.59495.95344-3.63745.03352-1.18875-1.05028-1.215-2.88267-.06-3.96646l2.62875-2.46554c1.0275-.96089 2.385-1.4972 3.7988-1.4972 1.3537 0 2.6625.495342 3.6712 1.38547l1.1288.99813h1.4587 1.5 1.5c.33 0 .6.26816.6.5959v7.74675c0 .6592-.5362 1.1918-1.2 1.1918h-1.2c-.4425 0-.8325-.2384-1.0387-.5959h-3.1838c-.1275.2495-.2962.4878-.5062.6964-.6413.6369-1.53.8864-2.3625.7486-.135.2719-.3188.5251-.5475.7523-1.0238 1.0168-2.625 1.1173-3.765.3017-.9413.7747-2.3438.7263-3.22505-.1527l-1.00875-1.0056-.2625-.2607-1.335-1.3259c-.20625-.2048-.47625-.324-.765-.3463 0 .6555-.54 1.1881-1.2 1.1881h-1.2c-.66375 0-1.2-.5326-1.2-1.1918v-7.74675c0-.32774.27-.5959.6-.5959h1.5 1.5.7425c.075 0 .14625-.02607.19875-.07449l.99375-.87895c1.04625-.91992 2.3925-1.43016 3.79125-1.43016h.38625c.165 0 .3338.007449.495.022346zm10.1925 9.512054v-5.3631h-1.8c-.2212 0-.435-.08194-.5962-.22719l-1.3838-1.22159c-.6825-.60335-1.5637-.93482-2.4787-.93482-.9525 0-1.8675.36127-2.5613 1.00931l-2.62875 2.46553c-.38625.36499-.37875.97951.01875 1.32961.34875.30912.8775.30167 1.2188-.01118l2.6962-2.47298c.3638-.3352.9338-.31285 1.2713.05214s.315.92737-.0525 1.26256l-.03.0298 2.79 2.77093c.375.37244.6187.83054.7275 1.30726h2.8087zm-18 .59595c0-.1581-.06321-.3097-.17574-.4214-.11252-.1118-.26513-.17455-.42426-.17455s-.31174.06275-.42426.17455c-.11253.1117-.17574.2633-.17574.4214 0 .158.06321.3096.17574.4213.11252.1118.26513.1746.42426.1746s.31174-.0628.42426-.1746c.11253-.1117.17574-.2633.17574-.4213zm19.8.5959c.1591 0 .3117-.0628.4243-.1746.1125-.1117.1757-.2633.1757-.4213 0-.1581-.0632-.3097-.1757-.4214-.1126-.1118-.2652-.17455-.4243-.17455s-.3117.06275-.4243.17455c-.1125.1117-.1757.2633-.1757.4214 0 .158.0632.3096.1757.4213.1126.1118.2652.1746.4243.1746z" fill="#fff"/></svg>

<svg width="24" height="15" viewBox="0 0 24 15" fill="none" xmlns="http://www.w3.org/2000/svg">
<path d="M10.2075 0.428596L8.29125 2.33175C7.7175 2.48818 7.185 2.77495 6.735 3.16974L5.7375 4.05241C5.355 4.39133 4.85625 4.57755 4.3425 4.57755H3.6V9.34475C4.365 9.3671 5.0925 9.67622 5.63625 10.2163L6.97125 11.5421L7.23375 11.8028L8.24625 12.8084C8.47875 13.0393 8.86125 13.0393 9.09375 12.8084C9.1575 12.7451 9.20625 12.6706 9.2325 12.5924C9.3375 12.3056 9.58125 12.0896 9.88125 12.0226C10.1813 11.9555 10.4963 12.0449 10.7138 12.2647L11.1188 12.6594C11.5538 13.0915 12.2588 13.0915 12.69 12.6594C12.8925 12.4583 13.0013 12.2013 13.0125 11.9369C13.0275 11.6092 13.2225 11.3187 13.5225 11.1771C13.8225 11.0356 14.1713 11.0654 14.4375 11.2554C14.79 11.5049 15.2813 11.4714 15.5963 11.1585C15.9488 10.8084 15.9488 10.2423 15.5963 9.89596L12.7538 7.07288L11.4112 8.30193C10.3875 9.24047 8.81625 9.25537 7.77375 8.33545C6.585 7.28517 6.55875 5.45278 7.71375 4.36899L10.3425 1.90345C11.37 0.94256 12.7275 0.40625 14.1413 0.40625C15.495 0.40625 16.8038 0.901592 17.8125 1.79172L18.9413 2.78985H20.4H21.9H23.4C23.73 2.78985 24 3.05801 24 3.38575V11.1325C24 11.7917 23.4638 12.3243 22.8 12.3243H21.6C21.1575 12.3243 20.7675 12.0859 20.5613 11.7284H17.3775C17.25 11.9779 17.0813 12.2162 16.8713 12.4248C16.23 13.0617 15.3413 13.3112 14.5088 13.1734C14.3738 13.4453 14.19 13.6985 13.9613 13.9257C12.9375 14.9425 11.3363 15.043 10.1963 14.2274C9.255 15.0021 7.8525 14.9537 6.97125 14.0747L5.9625 13.0691L5.7 12.8084L4.365 11.4825C4.15875 11.2777 3.88875 11.1585 3.6 11.1362C3.6 11.7917 3.06 12.3243 2.4 12.3243H1.2C0.53625 12.3243 0 11.7917 0 11.1325V3.38575C0 3.05801 0.27 2.78985 0.6 2.78985H2.1H3.6H4.3425C4.4175 2.78985 4.48875 2.76378 4.54125 2.71536L5.535 1.83641C6.58125 0.91649 7.9275 0.40625 9.32625 0.40625H9.7125C9.8775 0.40625 10.0463 0.413699 10.2075 0.428596ZM20.4 9.94065V4.57755H18.6C18.3788 4.57755 18.165 4.49561 18.0038 4.35036L16.62 3.12877C15.9375 2.52542 15.0563 2.19395 14.1413 2.19395C13.1888 2.19395 12.2738 2.55522 11.58 3.20326L8.95125 5.66879C8.565 6.03378 8.5725 6.6483 8.97 6.9984C9.31875 7.30752 9.8475 7.30007 10.1888 6.98722L12.885 4.51424C13.2488 4.17904 13.8188 4.20139 14.1563 4.56638C14.4938 4.93137 14.4713 5.49375 14.1038 5.82894L14.0738 5.85874L16.8638 8.62967C17.2388 9.00211 17.4825 9.46021 17.5913 9.93693H20.4V9.94065ZM2.4 10.5366C2.4 10.3785 2.33679 10.2269 2.22426 10.1152C2.11174 10.0034 1.95913 9.94065 1.8 9.94065C1.64087 9.94065 1.48826 10.0034 1.37574 10.1152C1.26321 10.2269 1.2 10.3785 1.2 10.5366C1.2 10.6946 1.26321 10.8462 1.37574 10.9579C1.48826 11.0697 1.64087 11.1325 1.8 11.1325C1.95913 11.1325 2.11174 11.0697 2.22426 10.9579C2.33679 10.8462 2.4 10.6946 2.4 10.5366ZM22.2 11.1325C22.3591 11.1325 22.5117 11.0697 22.6243 10.9579C22.7368 10.8462 22.8 10.6946 22.8 10.5366C22.8 10.3785 22.7368 10.2269 22.6243 10.1152C22.5117 10.0034 22.3591 9.94065 22.2 9.94065C22.0409 9.94065 21.8883 10.0034 21.7757 10.1152C21.6632 10.2269 21.6 10.3785 21.6 10.5366C21.6 10.6946 21.6632 10.8462 21.7757 10.9579C21.8883 11.0697 22.0409 11.1325 22.2 11.1325Z" fill="white"/>
</svg>
